polaris-icons/icons/new-icons/FraudProtectPendingMajor.svg

<svg width="20" height="20" viewBox="0 0 20 20" fill="none" xmlns="http://www.w3.org/2000/svg">
<path d="M14.25 11.7505C14.25 11.3363 13.9142 11.0005 13.5 11.0005C13.0858 11.0005 12.75 11.3363 12.75 11.7505V13.3969C12.75 13.6622 12.8554 13.9165 13.0429 14.104L13.7197 14.7808C14.0126 15.0737 14.4874 15.0737 14.7803 14.7808C15.0732 14.4879 15.0732 14.0131 14.7803 13.7202L14.25 13.1898V11.7505Z" fill="#4A4A4A"/>
<path fill-rule="evenodd" clip-rule="evenodd" d="M11.0932 2.91473C10.4541 2.40342 9.54592 2.40342 8.90679 2.91473L8.58988 3.16826C7.60347 3.95738 6.52283 4.62089 5.37281 5.14354L4.52596 5.5284C3.90734 5.80954 3.4829 6.4396 3.51511 7.15602C3.79613 13.4052 7.8959 16.2036 9.2485 16.9579C9.6912 17.2049 10.2185 17.2188 10.6708 17C11.4437 17.6257 12.4281 18.0005 13.5 18.0005C15.9853 18.0005 18 15.9858 18 13.5005C18 11.9856 17.2514 10.6455 16.104 9.83001C16.3064 9.02405 16.4416 8.14074 16.485 7.17491C16.517 6.46228 16.097 5.83475 15.4834 5.55153L14.5832 5.13607C13.4633 4.61922 12.4103 3.96842 11.4472 3.19794L11.0932 2.91473ZM9 13.5005C9 14.1257 9.12752 14.7212 9.35797 15.2623C7.88587 14.2584 5.22577 11.8068 5.0136 7.08863C5.01058 7.0215 5.05113 6.93736 5.14657 6.89399L5.99342 6.50913C7.25656 5.93508 8.44349 5.20631 9.52692 4.33956L9.84383 4.08603C9.93513 4.01299 10.0649 4.01299 10.1562 4.08603L10.5102 4.36924C11.568 5.21551 12.7246 5.93032 13.9546 6.49801L14.8548 6.91347C14.9494 6.95715 14.9895 7.04087 14.9865 7.10755C14.9532 7.84915 14.859 8.53468 14.7182 9.16731C14.3307 9.05862 13.9222 9.00049 13.5 9.00049C11.0147 9.00049 9 11.0152 9 13.5005ZM13.5 16.5005C15.1569 16.5005 16.5 15.1573 16.5 13.5005C16.5 11.8436 15.1569 10.5005 13.5 10.5005C11.8431 10.5005 10.5 11.8436 10.5 13.5005C10.5 15.1573 11.8431 16.5005 13.5 16.5005Z" fill="#4A4A4A"/>
</svg>

<svg viewBox="0 0 20 20" xmlns="http://www.w3.org/2000/svg"><path d="M14.25 11.75a.75.75 0 0 0-1.5 0v1.647a1 1 0 0 0 .293.707l.677.677a.75.75 0 1 0 1.06-1.06l-.53-.531v-1.44Z" fill="#5C5F62"/><path fill-rule="evenodd" d="M11.093 2.915a1.75 1.75 0 0 0-2.186 0l-.317.253a15.25 15.25 0 0 1-3.217 1.976l-.847.384a1.71 1.71 0 0 0-1.01 1.628c.28 6.25 4.38 9.048 5.732 9.802.443.247.97.26 1.423.042a4.5 4.5 0 1 0 5.433-7.17c.202-.806.338-1.69.381-2.655a1.71 1.71 0 0 0-1.002-1.623l-.9-.416a15.249 15.249 0 0 1-3.136-1.938l-.354-.283Zm-2.093 10.585c0 .626.128 1.221.358 1.762-1.472-1.004-4.132-3.455-4.344-8.173-.003-.068.037-.152.133-.195l.846-.385a16.75 16.75 0 0 0 3.534-2.17l.317-.253a.25.25 0 0 1 .312 0l.354.283a16.749 16.749 0 0 0 3.445 2.129l.9.415c.094.044.134.128.131.195a11.927 11.927 0 0 1-.268 2.06 4.504 4.504 0 0 0-5.718 4.333Zm4.5 3a3 3 0 1 0 0-6 3 3 0 0 0 0 6Z" fill="#5C5F62"/></svg>
